frontend/public/svg/hand gestures/2-tap-1.svg

<svg width="113" height="159" viewBox="0 0 113 159" fill="none" xmlns="http://www.w3.org/2000/svg">
<g clip-path="url(#clip0)">
<path d="M5.46816 99.4666C6.07719 99.9969 6.65828 100.558 7.20931 101.149C8.10259 102.143 9.03728 103.136 9.94171 104.096C12.4608 106.622 14.7594 109.358 16.8127 112.276C18.9028 115.586 20.8039 119.012 22.5066 122.538C23.4544 124.409 24.435 126.344 25.4602 128.211L26.0841 129.349C28.4266 133.622 30.8486 138.04 33.5199 142.207C34.9896 144.365 36.8021 146.269 38.8859 147.842C42.6504 150.743 46.8234 153.071 51.2692 154.751C56.2243 156.771 61.5244 157.811 66.8756 157.811C72.7505 157.742 78.5683 156.645 84.0651 154.571C89.0021 152.686 93.4809 149.772 97.2037 146.021C100.927 142.272 103.809 137.772 105.659 132.822C110.682 119.757 112.656 105.431 111.697 89.0262C111.446 86.1921 110.731 83.4185 109.578 80.8174C108.55 78.1999 106.6 76.0491 104.095 74.7719C101.591 73.4946 98.7047 73.1796 95.9829 73.8858C94.6636 74.2639 93.3963 74.8066 92.2122 75.5004C91.7475 75.7459 91.2697 75.9986 90.784 76.2348C87.9985 70.1893 82.95 67.6152 75.3463 68.3785C75.3463 68.0897 75.3502 67.8153 75.3529 67.5521C75.3601 66.7993 75.3667 66.1501 75.3411 65.4892C75.236 62.7943 75.1376 60.0992 75.0464 57.4039C74.8107 50.6836 74.5659 43.7336 74.1537 36.9064C73.7297 29.8718 71.8999 24.1079 68.5611 19.2963C65.9267 15.4987 61.6092 14.3737 57.8175 16.4917C55.8096 17.5831 54.1003 19.1508 52.8399 21.0572C51.7864 22.8918 50.9111 24.823 50.2257 26.8244C49.9874 27.4538 49.7426 28.1003 49.4873 28.7363L49.2025 28.2769C48.6879 27.4427 48.1038 26.4969 47.4382 25.622C44.8227 22.1834 41.3867 21.4142 37.5006 23.3996C34.5864 24.8876 32.8066 27.1906 32.3517 30.0595C32.0104 32.2189 31.8509 34.436 31.6954 36.5802C31.5963 37.9539 31.4944 39.3749 31.3454 40.7624C30.416 49.4044 30.6234 58.1895 30.8256 66.6877C30.9201 70.6684 31.0171 74.7843 30.9961 78.83C30.985 80.883 31.1833 82.9649 31.375 84.9766C31.4537 85.8016 31.5317 86.6266 31.5967 87.4517L31.5438 87.4576L31.4688 87.4661C31.2719 87.3073 31.0749 87.1425 30.8846 86.9784C30.5853 86.7238 30.2869 86.4691 29.9719 86.2368C23.4873 81.4396 16.4669 79.6826 9.10015 81.013C7.41481 81.2617 5.82389 81.947 4.48557 83.001C3.14726 84.0551 2.10816 85.4413 1.47149 87.0211C0.860613 88.7053 0.694405 90.5187 0.988846 92.2856C1.28329 94.0531 2.02845 95.7143 3.15239 97.1097C3.8491 97.9655 4.62453 98.7551 5.46816 99.4666ZM37.4855 95.2437C37.3903 91.7133 37.2703 88.1828 37.1509 84.6524C36.8936 77.096 36.6257 69.2829 36.6257 61.6005C36.6257 54.2278 36.9957 46.7279 37.3541 39.4747C37.4547 37.4387 37.5529 35.4041 37.6483 33.3707C37.7599 30.9488 38.3343 28.3597 41.7177 27.446C43.8259 28.9484 45.139 31.2724 45.7297 34.5436C46.5872 39.1588 47.1867 43.8182 47.526 48.5C47.9697 55.026 48.3058 61.6713 48.6301 68.0976C48.8091 71.6451 48.9945 75.1919 49.1861 78.7381C49.2406 79.7134 49.3652 80.6835 49.912 81.1666C50.7425 81.9371 51.8034 82.4136 52.9312 82.5219C53.213 82.5337 53.4939 82.4884 53.7577 82.3887C54.0215 82.2896 54.2626 82.1373 54.4663 81.9424C54.718 81.6654 54.9118 81.3411 55.0358 80.988C55.1598 80.6349 55.2116 80.2608 55.1883 79.8874C55.1772 78.9862 55.1956 78.0831 55.2133 77.1806C55.2775 75.4925 55.2483 73.8018 55.1264 72.1163C53.8643 58.3529 55.0609 44.0421 56.0277 32.5424C56.2154 30.2997 57.0515 28.0498 57.8595 25.874L58.2014 24.9499C58.6665 23.9965 59.3625 23.1746 60.2262 22.5589C60.9056 22.0095 61.413 21.789 61.8193 21.8612C62.2499 21.9393 62.6875 22.3744 63.1936 23.2316C66.0329 28.034 66.7312 33.504 67.1618 38.2545C68.1679 49.3375 68.1765 61.0459 67.19 76.2191C67.1368 77.0408 67.0351 77.8783 66.936 78.6882C66.8047 79.7384 66.6735 80.8305 66.6439 81.9128C66.6052 83.3016 66.9563 84.3052 67.6868 84.8959C68.4298 85.4977 69.5147 85.6297 70.9088 85.2897C71.9183 85.0797 72.8345 84.5539 73.525 83.7886C74.2154 83.0227 74.6447 82.0572 74.7504 81.032C74.9026 80.0639 74.9886 79.0748 75.0713 78.1192C75.1317 77.4123 75.1934 76.7048 75.2807 76.0018C75.5209 74.0775 76.5612 73.1691 78.5519 73.1435C80.0621 73.1599 81.5277 73.6541 82.7393 74.5559C83.9509 75.4571 84.8461 76.7192 85.2951 78.1612C85.6042 79.3623 85.8018 80.5896 85.8858 81.8268C85.916 82.132 85.9462 82.4372 85.9803 82.7398C86.0256 83.2472 86.0413 83.7565 86.0282 84.2658C86.0282 84.6484 86.0236 85.0317 86.044 85.4124C86.1391 87.2206 86.9786 88.3246 88.538 88.6941C89.9163 89.0223 91.0453 88.4782 91.9792 87.029C92.1604 86.7487 92.3218 86.456 92.4826 86.1626C92.5929 85.9611 92.7045 85.759 92.8226 85.5614C92.9578 85.333 93.0917 85.102 93.2263 84.8742C93.5918 84.2461 93.9699 83.597 94.3873 82.9991C95.6258 81.2269 97.1623 79.3603 99.7798 79.6222C102.261 79.8696 103.193 81.754 104.159 84.1916C105.927 88.7735 106.623 93.6987 106.194 98.591L106.153 99.1272C105.535 107.214 104.896 115.576 102.372 123.405C100.875 128.303 98.708 132.97 95.9317 137.274C92.65 142.169 87.5227 145.652 80.2649 147.923C67.1946 152.01 54.9854 149.853 42.9403 141.325C41.7649 140.531 40.7404 139.534 39.9147 138.381C37.8816 135.439 35.9976 132.397 34.2701 129.266C31.6651 124.431 29.1305 119.43 26.5255 113.978C22.3866 105.324 17.1973 98.6553 10.6634 93.5897C10.5852 93.532 10.5112 93.469 10.4416 93.4014C10.2493 93.2045 10.0479 93.0115 9.85101 92.8172C8.44644 91.4533 7.11987 90.1656 7.95537 88.0601C8.76135 86.0254 10.8218 85.7235 12.9516 85.7235H13.0776C15.6792 85.6789 18.2627 86.1639 20.6707 87.1497C23.0786 88.1356 25.2605 89.6018 27.0837 91.4579C28.803 93.1605 29.9549 95.3526 30.3815 97.7345C30.9361 100.79 32.5726 101.376 33.8538 101.344C35.5767 101.291 36.9164 99.8788 37.3496 97.6584C37.4814 96.8609 37.527 96.051 37.4855 95.2437Z" fill="black"/>
<path d="M87.6997 11.3389C86.4973 9.83716 84.7251 10.1187 83.5857 11.0159C81.6167 12.5675 79.7672 14.3272 77.9793 16.0291L77.3578 16.6198C77.0683 16.955 76.8662 17.3558 76.767 17.7873C76.6896 18.0197 76.6049 18.2783 76.4881 18.5572L76.4297 18.6964L76.4953 18.8323C76.5734 18.9957 76.6423 19.1906 76.7152 19.394C76.8681 20.0085 77.1976 20.5648 77.6623 20.9948C77.9734 21.1873 78.3357 21.2805 78.7013 21.262C79.2309 21.2736 79.7527 21.1313 80.2036 20.8525C82.6209 19.0896 84.924 17.2544 87.0499 15.3977C88.4636 14.1618 88.7131 12.6069 87.6997 11.3389Z" fill="black"/>
<path d="M51.5377 3.13395C51.3622 2.64107 51.0754 2.1952 50.6997 1.83097C50.3241 1.46674 49.8697 1.1939 49.3716 1.03362C49.1481 0.967035 48.913 0.949224 48.682 0.981382C48.451 1.01354 48.2295 1.09495 48.0327 1.22006C47.7446 1.44625 47.5064 1.72956 47.3331 2.05226C47.1597 2.37496 47.055 2.73003 47.0254 3.09517C46.9677 3.46994 46.9067 3.84473 46.8456 4.21884C46.6763 5.25848 46.5003 6.33352 46.4012 7.40337C46.2391 8.8441 46.1905 10.2954 46.256 11.7437C46.2882 12.3976 46.5776 13.0124 47.061 13.454C47.5444 13.8955 48.1826 14.1283 48.8368 14.1013C48.9096 14.1013 48.9812 14.1065 49.0521 14.1065C49.7181 14.1607 50.38 13.9616 50.9055 13.549C51.431 13.1364 51.7814 12.5407 51.8868 11.8809C52.0077 11.1978 52.0793 10.5068 52.1008 9.81344C52.1146 9.55419 52.1277 9.30741 52.1467 9.07966V9.05078V9.02131C52.0922 8.40763 52.053 7.80899 52.0156 7.22485C51.9657 5.85063 51.8059 4.48267 51.5377 3.13395Z" fill="black"/>
<path d="M83.6257 40.7047C84.7526 40.9004 85.8946 41.0051 87.0386 41.0178C87.5394 41.0368 88.0533 41.0565 88.5856 41.0906H88.604H88.6224C88.9814 41.0742 89.3608 41.0664 89.7533 41.0585C90.7699 41.0549 91.7846 40.9928 92.7941 40.8727C93.8232 40.7316 95.9629 40.4363 95.7272 38.1266C95.5093 35.987 93.3447 35.9607 92.6339 35.9482C90.0584 35.9141 88.0796 35.9371 86.2208 36.0237C85.1661 36.0136 84.1219 36.2293 83.1584 36.6564C82.4705 37.0174 81.511 38.0695 81.5727 38.8965C81.6311 39.6769 82.8591 40.5492 83.6257 40.7047Z" fill="black"/>
<path d="M29.5812 17.9187L29.8331 17.7814L29.7388 17.5111C29.626 17.1875 29.5418 16.8278 29.4578 16.4813C29.3632 15.7085 29.0395 14.9815 28.5284 14.3941C26.6686 12.772 24.6516 11.3396 22.5073 10.1181C21.7322 9.67573 20.176 10.0242 19.4435 10.6189C19.2238 10.7863 19.0431 10.9994 18.9138 11.2435C18.7845 11.4876 18.7096 11.7568 18.6946 12.0326C18.7007 12.4172 18.7869 12.7962 18.9477 13.1455C19.1085 13.4948 19.3403 13.8067 19.6284 14.0614C20.9148 15.3137 22.3128 16.4767 23.6648 17.601C24.48 18.3444 25.5372 18.7669 26.6401 18.7902C27.6779 18.7497 28.689 18.4502 29.5812 17.9187Z" fill="black"/>
<path d="M21.6053 36.8165C18.8486 36.9405 15.8852 37.1105 12.9264 37.5102C12.4539 37.6469 12.0251 37.9042 11.6823 38.2569C11.3396 38.6097 11.0948 39.0457 10.9719 39.5219C10.935 39.7558 10.9487 39.995 11.0122 40.2231C11.0758 40.4513 11.1876 40.6631 11.3401 40.8444C11.5972 41.1003 11.9047 41.3003 12.2429 41.4316C12.581 41.563 12.9427 41.6229 13.3052 41.6077C14.2425 41.632 15.194 41.6268 16.1149 41.6209L16.9997 41.6163L17.0103 41.9576L17.3632 41.9293C17.8134 41.8932 18.2684 41.8749 18.7239 41.8565C19.848 41.854 20.9681 41.7219 22.0619 41.4627C22.5551 41.2695 22.9956 40.962 23.3468 40.5655C23.6979 40.169 23.95 39.6948 24.0823 39.1819C24.1402 38.8982 24.132 38.6049 24.0585 38.3248C23.985 38.0447 23.8481 37.7853 23.6583 37.5666C23.3924 37.2981 23.0707 37.0917 22.7157 36.962C22.3608 36.8323 21.9816 36.7826 21.6053 36.8165Z" fill="black"/>
</g>
<defs>
<clipPath id="clip0">
<rect width="111.577" height="157.521" fill="white" transform="translate(0.620117 0.698242)"/>
</clipPath>
</defs>
</svg>

<svg xmlns="http://www.w3.org/2000/svg" width="113" height="159" fill="none" viewBox="0 0 113 159"><g fill="#000" clip-path="url(#a)"><path d="M5.468 99.467a23 23 0 0 1 1.741 1.682c.894.994 1.828 1.987 2.733 2.947a62.6 62.6 0 0 1 6.87 8.18 104 104 0 0 1 5.695 10.262c.947 1.871 1.928 3.806 2.953 5.673l.624 1.138c2.343 4.273 4.765 8.691 7.436 12.858a24 24 0 0 0 5.366 5.635 48.2 48.2 0 0 0 12.383 6.909 41.3 41.3 0 0 0 15.607 3.06 50.4 50.4 0 0 0 17.19-3.24 37.22 37.22 0 0 0 21.594-21.749c5.022-13.065 6.996-27.391 6.037-43.796a25.9 25.9 0 0 0-2.119-8.209 11.5 11.5 0 0 0-13.595-6.932c-1.32.379-2.587.922-3.77 1.615-.465.246-.943.499-1.429.735-2.785-6.046-7.834-8.62-15.438-7.856q.001-.434.007-.827c.007-.753.014-1.402-.012-2.063q-.157-4.043-.295-8.085c-.235-6.72-.48-13.67-.892-20.498-.424-7.034-2.254-12.798-5.593-17.61-2.634-3.797-6.952-4.922-10.744-2.804a13.96 13.96 0 0 0-4.977 4.565 33 33 0 0 0-2.614 5.767c-.239.63-.483 1.276-.739 1.912l-.285-.46c-.514-.833-1.098-1.78-1.764-2.654-2.615-3.439-6.051-4.208-9.937-2.222-2.915 1.488-4.694 3.79-5.15 6.66-.34 2.159-.5 4.376-.656 6.52-.099 1.374-.2 2.795-.35 4.182-.929 8.642-.722 17.428-.52 25.926.095 3.98.192 8.096.171 12.142-.011 2.053.187 4.135.379 6.147.079.825.157 1.65.222 2.475l-.053.006-.075.008a23 23 0 0 1-.584-.488c-.3-.254-.598-.509-.913-.741-6.485-4.797-13.505-6.554-20.872-5.224a9.76 9.76 0 0 0-7.629 6.008A10.42 10.42 0 0 0 3.152 97.11a17.7 17.7 0 0 0 2.316 2.357m32.018-4.223c-.096-3.53-.216-7.061-.335-10.592-.257-7.556-.525-15.37-.525-23.052 0-7.372.37-14.872.728-22.125q.15-3.053.294-6.104c.112-2.422.686-5.011 4.07-5.925 2.108 1.502 3.421 3.826 4.012 7.098A126 126 0 0 1 47.526 48.5c.444 6.526.78 13.171 1.104 19.598q.269 5.32.556 10.64c.055.975.18 1.945.726 2.429a5.17 5.17 0 0 0 3.02 1.355 2.1 2.1 0 0 0 1.534-.58 2.8 2.8 0 0 0 .722-2.055c-.01-.9.008-1.804.025-2.706a46 46 0 0 0-.087-5.065c-1.262-13.763-.065-28.074.902-39.574.187-2.242 1.023-4.492 1.831-6.668l.342-.924a6.36 6.36 0 0 1 2.025-2.391c.68-.55 1.187-.77 1.593-.698.43.078.868.513 1.375 1.37 2.839 4.803 3.537 10.273 3.968 15.023 1.006 11.084 1.014 22.792.028 37.965-.053.822-.155 1.66-.254 2.47-.131 1.05-.263 2.142-.292 3.224-.039 1.389.312 2.392 1.043 2.983.743.602 1.828.734 3.222.394a4.86 4.86 0 0 0 3.841-4.258c.153-.968.239-1.957.321-2.913.06-.707.122-1.414.21-2.117.24-1.924 1.28-2.833 3.27-2.858a7.14 7.14 0 0 1 6.744 5.017 20 20 0 0 1 .59 3.666q.045.458.095.913.068.761.048 1.526c0 .382-.004.766.016 1.146.095 1.809.935 2.913 2.494 3.282 1.378.328 2.507-.216 3.441-1.665.181-.28.343-.573.504-.866q.163-.304.34-.602l.403-.687c.366-.628.744-1.277 1.161-1.875 1.239-1.772 2.775-3.639 5.393-3.377 2.481.248 3.413 2.132 4.379 4.57a32.2 32.2 0 0 1 2.035 14.399l-.041.536c-.618 8.087-1.257 16.449-3.781 24.278a55.5 55.5 0 0 1-6.44 13.869c-3.282 4.895-8.41 8.378-15.667 10.649-13.07 4.087-25.28 1.93-37.325-6.598a12 12 0 0 1-3.025-2.944 107 107 0 0 1-5.645-9.115 351 351 0 0 1-7.745-15.288c-4.138-8.654-9.328-15.323-15.862-20.388a2 2 0 0 1-.221-.189c-.193-.197-.394-.39-.591-.584-1.405-1.364-2.731-2.651-1.896-4.757.806-2.035 2.867-2.337 4.997-2.337h.126a19.17 19.17 0 0 1 14.006 5.735 11.75 11.75 0 0 1 3.297 6.276c.555 3.056 2.192 3.642 3.473 3.61 1.723-.053 3.062-1.465 3.496-3.686.131-.797.177-1.607.136-2.414M87.7 11.339c-1.203-1.502-2.975-1.22-4.114-.323-1.97 1.552-3.819 3.311-5.607 5.013l-.621.59c-.29.336-.492.737-.591 1.168-.077.233-.162.491-.279.77l-.058.14.065.135c.078.164.147.359.22.562a3.25 3.25 0 0 0 .947 1.6c.311.193.674.287 1.04.268.529.012 1.05-.13 1.502-.41a100 100 0 0 0 6.846-5.454c1.414-1.236 1.663-2.791.65-4.06M51.538 3.134a3.4 3.4 0 0 0-2.166-2.1 1.63 1.63 0 0 0-1.34.186 2.66 2.66 0 0 0-1.007 1.875q-.086.563-.18 1.124c-.169 1.04-.345 2.115-.444 3.184a28 28 0 0 0-.145 4.34 2.48 2.48 0 0 0 2.58 2.358c.074 0 .145.005.216.005a2.653 2.653 0 0 0 2.835-2.225q.18-1.026.214-2.068.02-.39.046-.733v-.06a73 73 0 0 1-.131-1.796 26 26 0 0 0-.478-4.091"/><path d="M83.626 40.705c1.127.195 2.269.3 3.413.313.5.019 1.014.038 1.547.073h.036c.36-.017.739-.025 1.131-.032a27 27 0 0 0 3.041-.186c1.03-.141 3.169-.437 2.933-2.746-.218-2.14-2.382-2.166-3.093-2.179-2.576-.034-4.554-.01-6.413.076a7.4 7.4 0 0 0-3.063.632c-.687.361-1.647 1.413-1.585 2.24.058.78 1.286 1.653 2.053 1.809M29.581 17.919l.252-.138-.094-.27c-.113-.323-.197-.683-.281-1.03a3.9 3.9 0 0 0-.93-2.087 37 37 0 0 0-6.02-4.276c-.776-.442-2.332-.094-3.064.5a1.9 1.9 0 0 0-.75 1.415 2.77 2.77 0 0 0 .934 2.028c1.287 1.253 2.685 2.416 4.037 3.54a4.56 4.56 0 0 0 2.975 1.19 6.2 6.2 0 0 0 2.941-.872m-7.976 18.898c-2.756.123-5.72.294-8.679.693a2.83 2.83 0 0 0-1.954 2.012 1.65 1.65 0 0 0 .368 1.322 2.63 2.63 0 0 0 1.965.764c.938.024 1.889.019 2.81.013l.885-.005.01.342.353-.029c.45-.036.905-.054 1.36-.073a14.6 14.6 0 0 0 3.339-.393 3.35 3.35 0 0 0 2.02-2.281 1.89 1.89 0 0 0-.424-1.615 2.57 2.57 0 0 0-2.053-.75"/></g><defs><clipPath id="a"><path fill="#fff" d="M.62.698h111.577V158.22H.62z"/></clipPath></defs></svg>
